X: 08097
T: ROOM 227 JIG
C: Bob McQuillen 3 Sept 90
B: Bob's Note Book 8 #97
%R: jig
Z: 2021 John Chambers <jc:trillian.mit.edu>
M: 6/8
L: 1/8
K: D
A \
| FDF AFA | dAd f2f | agf ede | fdB ABA |\
| FDF AFA | dAd f2f | agf ede | fdd d2 :|
|: A \
| def edc | Bcd dcB | AFB Ade | fgf eag |\
| fdf edc | Bcd dcB | AFB Agf | edc d2 :|
%%begintext align
%% A lot of music came out of this room
%% in the Women's Center at Augusta during
%% Irish Week - Hollis Bayer was the guilty party.
%% She had help, tho', from John Brennan & me!
%%endtext

%%sep 1 1 500

%%sep 1 1 500

